X: 27
T:Old Tipperary
R:Jig
Z:Lorna LaVerne
M:6/8
L:1/8
Q:3/8=120
K:G
d|:cAF ~G3|ABA G2d|cAG GFG|ADE F2d|cAF ~G3|ABA GBd|
fdd edd|[1 fdd cAd:|[2 fdd cAF||:GBd ~g3|gaf g2g|dgg dgg|
a2g fga|bag agf|gfe f2e|dcA (3Bcd e|fed cAF:|
